icons/products-white.svg

<svg fill="none" height="48" viewBox="0 0 46 48" width="46" xmlns="http://www.w3.org/2000/svg"><path d="m8.3125 21.375 13.0625-21.375 13.0625 21.375zm26.125 26.125c-2.9687 0-5.4922-1.0391-7.5703-3.1172s-3.1172-4.6016-3.1172-7.5703 1.0391-5.4922 3.1172-7.5703 4.6016-3.1172 7.5703-3.1172 5.4922 1.0391 7.5703 3.1172 3.1172 4.6016 3.1172 7.5703-1.0391 5.4922-3.1172 7.5703-4.6016 3.1172-7.5703 3.1172zm-34.4375-1.1875v-19h19v19zm34.4375-3.5625c1.6625 0 3.0677-.574 4.2156-1.7219s1.7219-2.5531 1.7219-4.2156-.574-3.0677-1.7219-4.2156-2.5531-1.7219-4.2156-1.7219-3.0677.574-4.2156 1.7219-1.7219 2.5531-1.7219 4.2156.574 3.0677 1.7219 4.2156 2.5531 1.7219 4.2156 1.7219zm-29.6875-1.1875h9.5v-9.5h-9.5zm11.9937-24.9375h9.2626l-4.6313-7.48125z" fill="#fff"/></svg>

<svg width="46" height="48" viewBox="0 0 46 48" fill="none" xmlns="http://www.w3.org/2000/svg">
<path d="M8.3125 21.375L21.375 0L34.4375 21.375H8.3125ZM34.4375 47.5C31.4688 47.5 28.9453 46.4609 26.8672 44.3828C24.7891 42.3047 23.75 39.7812 23.75 36.8125C23.75 33.8438 24.7891 31.3203 26.8672 29.2422C28.9453 27.1641 31.4688 26.125 34.4375 26.125C37.4062 26.125 39.9297 27.1641 42.0078 29.2422C44.0859 31.3203 45.125 33.8438 45.125 36.8125C45.125 39.7812 44.0859 42.3047 42.0078 44.3828C39.9297 46.4609 37.4062 47.5 34.4375 47.5ZM0 46.3125V27.3125H19V46.3125H0ZM34.4375 42.75C36.1 42.75 37.5052 42.176 38.6531 41.0281C39.801 39.8802 40.375 38.475 40.375 36.8125C40.375 35.15 39.801 33.7448 38.6531 32.5969C37.5052 31.449 36.1 30.875 34.4375 30.875C32.775 30.875 31.3698 31.449 30.2219 32.5969C29.074 33.7448 28.5 35.15 28.5 36.8125C28.5 38.475 29.074 39.8802 30.2219 41.0281C31.3698 42.176 32.775 42.75 34.4375 42.75ZM4.75 41.5625H14.25V32.0625H4.75V41.5625ZM16.7437 16.625H26.0063L21.375 9.14375L16.7437 16.625Z" fill="white"/>
</svg>
